packages/kaspersky-hexa-ui-icons/src/iconsSVGs/24/StatusWaiting.svg

<svg width="24" height="24" viewBox="0 0 24 24" fill="none" xmlns="http://www.w3.org/2000/svg">
<path fill-rule="evenodd" clip-rule="evenodd" d="M12 13.3229C11.9618 13.3662 11.9215 13.4081 11.8793 13.4483L8 17.1429L8 20H16L16 17.1429L12.1207 13.4483C12.0785 13.4081 12.0382 13.3662 12 13.3229ZM12 10.6771C12.0382 10.6338 12.0785 10.5919 12.1207 10.5517L16 6.85714V4H8L8 6.85714L11.8793 10.5517C11.9215 10.5919 11.9618 10.6338 12 10.6771ZM6.62069 15.6946C6.22433 16.0721 6 16.5955 6 17.1429V21C6 21.5523 6.44772 22 7 22H17C17.5523 22 18 21.5523 18 21V17.1429C18 16.5955 17.7757 16.0721 17.3793 15.6946L13.5 12L17.3793 8.30542C17.7757 7.92793 18 7.4045 18 6.85714V3C18 2.44772 17.5523 2 17 2H7C6.44772 2 6 2.44772 6 3V6.85714C6 7.4045 6.22433 7.92793 6.62069 8.30542L10.5 12L6.62069 15.6946Z" fill="black"/>
</svg>

<svg xmlns="http://www.w3.org/2000/svg" width="24" height="24" fill="none" viewBox="0 0 24 24"><path fill="#000" fill-rule="evenodd" d="M12 13.3229a2 2 0 0 1-.1207.1254L8 17.1429V20h8v-2.8571l-3.8793-3.6946A2 2 0 0 1 12 13.3229m0-2.6458a2 2 0 0 1 .1207-.1254L16 6.8571V4H8v2.8571l3.8793 3.6946q.0633.0604.1207.1254m-5.3793 5.0175A2 2 0 0 0 6 17.1429V21c0 .5523.4477 1 1 1h10c.5523 0 1-.4477 1-1v-3.8571a2 2 0 0 0-.6207-1.4483L13.5 12l3.8793-3.6946A2 2 0 0 0 18 6.8571V3c0-.5523-.4477-1-1-1H7c-.5523 0-1 .4477-1 1v3.8571a2 2 0 0 0 .6207 1.4483L10.5 12z"/></svg>
